X:1
T:My Mother’s Prayer
T:Winfield Scott Weeden
T:My Mother’s Prayer
T:Public Domain
T:Public Domain
T:Public Domain
C:Winfield Scott Weeden
Z:Public Domain
%%score ( 1 2 ) ( 3 4 )
L:1/8
M:3/4
K:Db
V:1 treble 
V:2 treble 
V:3 bass 
V:4 bass 
V:1
 [DF] | [DF]>[EG] [FA]3 [A,D] | [A,C]>[A,D] [CE]3 [EG] | [EG]>[EG] [Gc]3 [GB] | %4
w: 1.~I|nev- er can for-|get the day I|heard my mo- ther|
w: 2.~I|nev- er can for-|get the voice That|al- ways made my|
w: 3.~Tho’|years have gone, I|can’t for- get Those|words of love— I|
w: 4.~I|nev- er can for-|get the hour I|felt the Sav- ior’s|
 [GB]>[FA] [FA]3 [DF] | [DF]>[CE] D3 D | [DG][GB] [FA]3 [FA] | [GB][Gd] [DF]3 D | [DF]<[CE] D3 || %9
w: kind- ly say, “You’re|leav- ing now my|care; Re- mem- ber,|child, your mo- ther’s||
w: heart re- joice; Though|I have wan- dered|where, Still I re-|mem- ber Mo- ther’s|1,2,3.~When- e’er I|
w: hear them yet; I|see her by the|chair, My mo- ther|dear, in hum- ble|4.~~~~~~~O praise the|
w: cleans- ing pow’r. My|sin soul guilt be|there, ’Twas there He|an- swered Mo- ther’s||
"^Refrain" [Fd] | [Gd]>[Gc] [Gc]3 [DB] | [DB]>[DA] [DA]3 [Dd] | [Dd]>[Ec] [Ec]3 [EB] | %13
w: ||||
w: of|her so dear, I|feel her an- gel|spir- it near; A|
w: for|sav- ing grace! We’ll|meet up yon- der|face to face; The|
w: ||||
 [EA]>[E=G] [EA]3 [EG] | [DF]>[DE] D3 D | [DG][GB] [Gd]3 [Bd] | [Ac]>[GB] [FA]3 D | [DF]<[CE] D3 |] %18
w: |||||
w: voice comes float- ing|on the air, Re-|me of Mo- ther’s|prayer. * * *||
w: home a- bove to-|geth- er share, In|to my mo- ther’s|prayer. * * *||
w: |||||
V:2
 x | x6 | x6 | x6 | x6 | x2 D3 D | x6 | x5 D | x2 D3 || x | x6 | x6 | x6 | x6 | x2 D3 D | x6 | %16
w: |||||ten- der||prayer.”|||||||||
w: |||||God knows||prayer.|think||||||mind- ing||
w: |||||old arm||prayer.|Lord||||||an- swer||
w: |||||can- celed||prayer.|||||||||
 x5 D | x2 D3 |] %18
w: ||
w: ||
w: ||
w: ||
V:3
 [D,A,] | [D,A,]>[D,A,] [D,D]3 [D,F,] | [A,,E,]>[A,,F,] [A,,A,]3 [A,,A,] | A,>A, A,3 [A,C] | %4
 [D,D]>[D,D] [D,D]3 [D,A,] | [A,,A,]>[A,,G,] [B,,F,]3 [C,F,] | [B,,G,][G,,D] [D,D]3 [D,D] | %7
 [G,D][G,B,] A,3 [A,,F,] | [A,,A,]<[A,,G,] [D,F,]3 || [D,A,] | [D,B,]>[D,A,] [D,A,]3 [D,G,] | %11
 [D,G,]>[D,F,] [D,F,]3 [D,F,] | [B,,B,]>[E,A,] [E,A,]3 [E,D] | [E,C]>[E,B,] [A,,C]3 [A,,A,] | %14
 [D,A,]>[D,G,] [D,F,]3 [_C,F,] | [B,,G,][G,,D] [G,,B,]3 [G,D] | [G,D]>[G,D] [A,D]3 [A,,F,] | %17
 [A,,A,]<[A,,G,] [D,F,]3 |] %18
V:4
 x | x6 | x6 | A,>A, A,3 x | x6 | x6 | x6 | x2 A,3 x | x5 || x | x6 | x6 | x6 | x6 | x6 | x6 | x6 | %17
 x5 |] %18

